X:1
T:Title
%%score 1 { 2 | 3 }
L:1/8
Q:1/4=113
M:4/4
K:G
V:1 treble nm="Grand Piano, Staff 1"
V:2 bass nm="Choir Pad, Cassel, 77.77.77"
V:3 bass 
V:1
 [DG]2 [DA]2 [DB]2 [Fd]2 | [Ec]2 [DB]2 [DA]4 | [DB]2 [DA]2 [B,G]2 [EA]2 | [DG]2 [DF]2 [DG]4 | %4
w: By~Christen\-schatz~(Basle:~1745) * * *||||
 [DF]2 [DG]2 [^CA]2 [DA]2 | [^CG]2 [DF]2 [CE]4 | [DF]2 [DG]2 [DA]2 [DB]2 | [Ec]2 [DB]2 [DA]4 | %8
w: ||||
 [DG]2 [FA]2 [GB]2 [=Fd]2 | [Ec]2 [EB]2 [CA]4 | [GB]2 [FA]2 G2 [EA]2 | [DG]2 [DF]2 [DG]4- | %12
w: ||||
 [DG]4 z4 |] %13
w: |
V:2
 B,2 A,2 G,2 A,2 | G,2 G,2 F,4 | G,2 F,2 G,2 C2 | B,2 A,2 B,4 | A,2 D,2 E,2 F,2 | G,2 A,2 A,4 | %6
 A,2 G,2 F,2 G,2 | G,2 G,2 F,4 | D2 C2 B,2 A,2 | A,2 ^G,2 A,4 | D2 D2 B,2 C2 | B,2 A,2 B,4- | %12
 B,4 z4 |] %13
V:3
 G,2 F,2 z2 D,2 | E,2 z2 D,4 | z2 D,2 E,2 C,2 | D,2 D,2 G,,4 | D,2 B,,2 A,,2 D,2 | E,2 D,2 A,,4 | %6
 D,2 B,,2 D,2 z2 | C,2 z2 D,4 | B,2 A,2 G,2 D,2 | E,2 E,2 z4 | G,2 D,2 E,2 C,2 | D,2 D,2 G,,4- | %12
 G,,4 z4 |] %13

